X: 553
T: Pan qinglang
%%abc-version 2.0
%%abcx-abcm2ps-target-version 5.9.1 (29 Sep 2008)
%%abc-creator hum2abc beta
%%abcx-conversion-date 2013/10/02 07:52:30
%%abc-edited-by Helmut Schaffrath
%%humdrum-veritas 98756241
%%humdrum-veritas-data 636134791
%%continueall 1
%%barnumbers 0
L: 1/8
M: 2/4
K: F
c d f d [I:setbarnb 1]| 
c3f | 
A2A G | 
F4 | 
c2c2 | 
d2c2 | 
F G A G/ A/ | 
c3A | 
F DC2 | 
c2A2 | 
G F D F | 
C4 | 
F G A G/ A/ | 
c A G F | 
F DC2 | 
c2A2 | 
G F D F | 
C4 |]  



